X:1
T: Major Thomas of Cairnleith
C:
R:Strathspey
Q: 128
K:Bb
M:4/4
L:1/16
|:F4|d3c B3G FD3 D3F|GFGA B3G F3B, DF3|d3c B3G FD3 D3F|Gc3 c3=B c4 c3f|
d3c B3G FD3 D3F|GFGA B3G F3B, DF3|G3B eg3 F3B df3|Fd3 c3B B4 B3A|
G3A B3c d3B G3d|e3c Ae3 d3B G4|^F3G A3F Fc3 B3A|G3A B3c d4 d4|
G3A B3c d3B G3d|ee3 f3e d3c B3A|G3B eg3 F3B df3|Fd3 c3B B4:|
